X:1
T:Musical Offering Sonata III, Andante (A = 415 Hz)
T:BWV 1079
T:J. S. Bach
%%score { 1 | 2 } { 3 | 4 }
L:1/8
Q:1/4=96
M:4/4
K:D
V:1 treble nm="Harp"
V:2 treble 
V:3 treble nm="Harp"
V:4 bass 
V:1
"^Andante" z AB =c2 B/A/ A/G/ z/ F/ | F/E/c d e2 d/G/ G/F/ z/ C/ | C/D/ z z2 F3 z/ A/ | %3
 A/G/ z z2 =f3 z/ d/ | d/=c/ z/ A/ A/^G/ z/ ^g/ g/a/ z/ c/ c/B/ z/ g/ | %5
 ^g/a/ z/ ^G/ G/A/ z/ A/{A} =f2- f/4e/4d/4=c/4B/4A/4G/4B/4 | E/=c/ z/ A/ A/B/ z/ ^G/ G/A/c de- | %7
 ed/=c/ c/B/ z/ A/ A/G/e fg- | gf/b/ b/a/ z/ A/ A/G/ z/ g/ g/f/ z/ e/ | eCDE F/B/^A/B/ g/f/B/A/ | %10
 B2 z z2 e{d} =cB/A/ | gef g2 f/=c/ c/B/ z/ A/ | A/G/B de/=f/ ^G z/ =c'/ c'/b/ z/ b/ | %13
 b/a/A B =c2 B/=F/ F/E/ z/ ^G/ | ^G/A/e e/ =f2 e/e/^d/ d<e- | e/d/d/c/ c/ d3 =c/ c/B/ z/ d/ | %16
 d/c/ d2 =c2- c/B/ B/A/ z/ c/ | =c/B/d e =f2 e/d/ d/c/ z/ B/ | B/A/f g a2 g/=c/ c/B/ z/ F/ | %19
 F/G/ z z2 B3 z/ b/ | b/a/ z z2 ^a3 z/ c/ | c/d/ z/ =F/ F/E/ z/ e/ e/=f/ z/ F/ F/E/ z/ c/ | %22
 c/d/=f- f/4e/4d/4=c/4B/4A/4^G/4B/4 E/d/ z/ d'/ d'/c'/ z/ e/ | %23
 e/d/ z/ d/ d/e/ z/ G/ G/F/ z/ B/ B/c/ z/ E/ | E/D/ z/ g/ g/a/ z/ f/ f/g/ z/ f/ f/e/ z/ d/ | %25
 d/c/ z2 =f e2- e/_e/e/d/ | d2- d/c/c/d/ e/A/ d2 c | dfg a2 g/=c/ c/B/ z/ d/ | %28
 d/c/E F G2 F/B/ B/A/ z/ G/ | G/F/ z z2 z4 |] %30
V:2
 z FG A2 G/=C/ C/B,/ z/ D/ | D/C/E F G2 F/B/ B/A/ z/ G/ | G/F/ z z2 ^d3 z/ F/ | %3
 F/E/ z z2 ^G3 z/ ^g/ | ^g/a/ z/ =c/ c/B/ z/ B/ B/c/ z/ A/ A/^G/ z/ E/ | %5
{E} =c2- c/4B/4A/4G/4F/4E/4^D/4F/4 B,/A/ z/ a/ a/^g/ z/ B,/ | %6
 B,/A,/ z/ =C/ C/D/ z/ B,/ B,/C/E =FG- | GF/e/ e/d/ z/ =c/ c/B/G AB- | %8
 BA/G/ G/F/ z/ f/ f/e/ z/ B/ B/^A/ z/ B/ | c^ABc- c/F/E/G/ DD/4C/4D/4C/4 | %10
 B,F AB/=c/ ^D z/ g/ g/f/ z/ f/ | f/e/G A B2 A/a/ a/g/ z/ ^D/ | ^D/E/ z4 A =FE/=D/ | %13
 =c=CD E2 D/d/ d/c/ z/ D/ | D/=C/ z2 =c B2- B/_B/B/A/ | A2- A/^G/G/A/ B/E/ A2 =G- | %16
 G>F F/E/ z/ G/ G/F/ G2 F | GB=c d2 c/=F/ F/E/ z/ G/ | G/F/A B =c2 B/e/ e/d/ z/ c/ | %19
 =c/B/ z z2 ^g3 z/ D/ | D/=C/ z z2 c3 z/ g/ | g/=f/ z/ d/ d/c/ z/ C/ C/D/ z/ d/ d/c/ z/ E/ | %22
 E/=F/ z/ C/ C/D/ z/ D/ D/4 ^A2 =A/4G/4F/4E/4D/4C/4E/4 | %23
 A,/F/ z/ F/ F/G/ z/ E/ E/D/ z/ D/ D/E/ z/ C/ | C/B,/ z/ B/ B/=c/ z/ A/ A/B/ z/ A/ A/G/ z/ F/ | %25
 F/E/A A/ ^A2 =A/A/^G/ G/A-A/- | A/G/G/F/ F/G/- G2 =F EA/G/ | FAB =c2 B/A/ A/G/ z/ F/ | %28
 F/E/c d e2 d/G/ G/F/ z/ C/ | C/D/ z z2 z4 |] %30
V:3
 [FAd]2 z2 [DFA=c][DGB] z [DFA] | [CEG]2 z2 [A,CEG][A,DF] z [A,CEG] | [A,DF] z z2 [^DFA]3 [B,FA] | %3
 [B,EG] z z2 [^E^GB]3 [DGB] | [=CA]3 [D^GB] [DGB]3 [EA=c] | [=CFA]3 [B,FA] [B,FA]3 [B,E^G] | %6
 [=CEA][C=FA][DFB][DE^G] [CEA]2 z [=Ge] | [GAe] [FAd]2 [DA=c] [DGB]2 z [EG] | %8
 [EGB][^DFB][CEB][B,FA] [B,FA] [B,EG]3 | [CEF] z/ [CE^A]/ [DB] z/ [CGc]/ [CFA]E/G/ [DFB][CFA] | %10
 [DFB] z/ [^DFA]/ [DFA] z [FA^d][EGe] [EG=c][DFB] | [EGB]2 z2 [GBe]2 [F^d][FABd] | %12
 [GBe] z [^GBd] z [GBe] [A=c=f]2 [GBe] | [EA=c]2 z2 [EAc]2 [^GB][EGBd] | %14
 [EA=c] z/ [Be]/ [=Fc=f] z [FBf] z/ [^FB^d]/ [EBe] z/ [E^Ae]/ | %15
 [EAe] z/ [EAc]/ [DAd] z/ [=FAd]/ [EBd][EA=c][^FAc][GB] | %16
 [EGc][DFd][EBd][EA=c] [FAc][GB][EGA][DFA] | [DGB]2 z [=Fd] [FGd][EG=c] z [DGB] | %18
 [DFA=c]2 z2 [DFAc][DGB] z [=CDA] | [B,DG]2 z2 [D^GB]3 [DEB] | [=CEA] z z2 [E^Ac]3 [EGc] | %21
 [^Ed]3 [=EGc] [^EAd]3 [=EAc] | [=FBd]3 [EBd] [E^Ad]3 [E=Ac] | %23
 [DAd][DFB][EGB][CEA] [DFA][DGB][EGc][CF^A] | [DFB][EGB][EAe][FAd] [GBd][FAd][EGc][FBd] | %25
 [EAc] z/ [ea]/ [^A=f^a] z/ [Afa]/ [Aea] z/ [Be^g]/ [=Ae=a] z/ [A^da]/ | %26
 [Ada] z/ [Adf]/ [Gdg] z/ [Gd]/ [Gce] z/ [=FBd]/ [EBd] z/ [EAc]/ | [FAd]2 z2 [DFA=c][DGB] z [DFA] | %28
 [CEG]2 z2 [A,EG][A,DF] z [G,A,C] | [F,A,D]2 z2 z4 |] %30
V:4
 D,2 z2 D,,2 z D,, | D,2 z2 D,,2 z D,, | D,A,B, =C2 B,/A,/ A,/B,/^D, | E,,B,=C D2 C/B,/ B,/C/E, | %4
 =F,,=F,F,F,, E,,E,E,E,, | ^D,,^D,D,D,, =D,,=D,D,D,, | =C,,=F,,D,,E,, A,,2 z2 | D,,D,E,F, G,,2 z2 | %8
 B,,,B,,C,^D, E,,E,F,G, |{B,,} ^A,, z/ G,/ G,/F,/ z/ E,/ E,/D,/G,/E,/ F,F,, | %10
 B,, z/ =C/ C/B,/ z/ A,/ A,/G,/=C, A,,B,, | E,,2 z2 E,2 z E,, | %12
 E,, z/ =F,/ F,/E,/ z/ D,/ D,/=C,/=F,, D,,E,, | A,,2 z2 A,2 z A, | %14
 A,, z/ ^G,/ G,/A,/ z/ A,,/ A,,/^G,,/ z/ F,/ F,/=G,/ z/ =G,,/ | %15
 G,,/F,,/ z/ E,/ E,/=F,/ z/ F,/{A,,} ^G,,A,, D,,E,, | A,,B,,G,,A,, D,E,=C,D, | G,,2 z2 G,2 z G, | %18
 G,,2 z2 G,2 z G, | G,,D,E, =F,2 E,/D,/ D,/E,/^G,, | A,,E,=F, G,2 F,/E,/ E,/F,/A,, | %21
 _B,,_B,B,B,, A,,A,A,A,, | ^G,,^G,G,G,, =G,,=G,G,G,, | F,,B,,G,,A,, D,,G,,E,,F,, | %24
 B,,,E,=C,D, G,,A,,B,,G,, | A,, z/ C/ C/D/ z/ D,/ D,/C,/ z/ B,/ B,/=C/ z/ =C,/ | %26
 =C,/B,,/ z/ A,/ A,/^A,/ z/ ^A,,/ A,,/=A,,/ z/ ^G,,/ G,,/A,,/ z/ A,,/ | D,,2 z2 D,2 z D, | %28
 D,,2 z2 D,2 z D, | D,,2 z2 z4 |] %30

